T: McGurk's
M: 6/8
L: 1/8
K: Amaj
fde faa | gec ABc | dAd eaa | ged cde |fde faa | gec ABc | dAd eaa | gec d2 e :||: cea ece | dBG EGB | AEA Bee | cee Bee |cea ece | dBG EGB |[1 AEA Bee | dBG A2 B :|[2 Ace Adf | egb a2 =g |]
